build/images/svg/diagram-light.svg

<svg width="328" height="328" viewBox="0 0 328 328" fill="none" xmlns="http://www.w3.org/2000/svg">
<g filter="url(#filter0_ii)">
<path d="M321.854 170.788C325.165 170.93 327.975 168.361 327.997 165.047C328.175 137.195 321.255 109.72 307.846 85.2319C294.437 60.7441 275.015 40.1147 251.452 25.2624C248.649 23.4954 244.97 24.4797 243.307 27.3458L224.635 59.5201C222.972 62.3861 223.956 66.0446 226.732 67.8554C242.543 78.172 255.595 92.2486 264.692 108.862C273.789 125.476 278.62 144.054 278.795 162.933C278.826 166.247 281.378 169.047 284.688 169.19L321.854 170.788Z" fill="url(#paint0_radial)" fill-opacity="0.6"/>
</g>
<g filter="url(#filter1_ii)">
<path d="M84.6469 27.3725C82.9827 24.507 79.3038 23.5239 76.5011 25.2918C53.6423 39.7113 34.6732 59.576 21.3177 83.1436C6.97495 108.453 -0.377343 137.123 0.0149087 166.211C0.40716 195.3 8.52984 223.761 23.5498 248.674C37.536 271.873 57.0338 291.219 80.2732 305.017C83.1225 306.709 86.7735 305.627 88.3599 302.718L106.169 270.057C107.755 267.148 106.673 263.517 103.851 261.781C88.2615 252.191 75.1646 238.996 65.6849 223.272C55.1709 205.832 49.485 185.91 49.2104 165.548C48.9359 145.186 54.0825 125.117 64.1224 107.401C73.1746 91.4266 85.911 77.8829 101.236 67.8765C104.011 66.0648 104.994 62.4059 103.33 59.5405L84.6469 27.3725Z" fill="url(#paint1_radial)" fill-opacity="0.5"/>
</g>
<g filter="url(#filter2_ii)">
<path d="M91.2477 304.254C89.7219 307.195 90.8653 310.827 93.8607 312.245C116.678 323.04 141.706 328.435 166.997 327.973C194.291 327.474 221.028 320.17 244.785 306.723C268.542 293.276 288.566 274.112 303.042 250.968C316.456 229.522 324.713 205.287 327.201 180.168C327.528 176.87 325.002 174.02 321.695 173.814L284.567 171.504C281.259 171.298 278.428 173.815 278.049 177.107C276.102 194.051 270.4 210.375 261.329 224.877C251.196 241.078 237.179 254.493 220.549 263.906C203.92 273.319 185.204 278.432 166.098 278.781C148.995 279.093 132.065 275.58 116.536 268.528C113.518 267.158 109.903 268.29 108.377 271.232L91.2477 304.254Z" fill="url(#paint2_radial)" fill-opacity="0.25"/>
</g>
<g filter="url(#filter3_ii)">
<path d="M240.6 25.8101C242.206 22.9119 241.164 19.2494 238.209 17.75C215.24 6.09516 189.821 0.00121904 164.008 1.82828e-07C138.195 -0.00121867 112.775 6.09032 89.805 17.743C86.8498 19.2421 85.8069 22.9045 87.4131 25.8029L105.445 58.3404C107.051 61.2388 110.697 62.271 113.675 60.8184C129.328 53.184 146.538 49.1992 164.005 49.2C181.473 49.2008 198.683 53.1873 214.335 60.8231C217.313 62.276 220.958 61.2442 222.565 58.3459L240.6 25.8101Z" fill="url(#paint3_radial)" fill-opacity="0.8"/>
</g>
<defs>
<filter id="filter0_ii" x="222.822" y="24.38" width="105.178" height="147.413" filterUnits="userSpaceOnUse" color-interpolation-filters="sRGB">
<feFlood flood-opacity="0" result="BackgroundImageFix"/>
<feBlend mode="normal" in="SourceGraphic" in2="BackgroundImageFix" result="shape"/>
<feColorMatrix in="SourceAlpha" type="matrix" values="0 0 0 0 0 0 0 0 0 0 0 0 0 0 0 0 0 0 127 0" result="hardAlpha"/>
<feOffset/>
<feGaussianBlur stdDeviation="10"/>
<feComposite in2="hardAlpha" operator="arithmetic" k2="-1" k3="1"/>
<feColorMatrix type="matrix" values="0 0 0 0 1 0 0 0 0 0.69 0 0 0 0 0.225 0 0 0 0.4 0"/>
<feBlend mode="normal" in2="shape" result="effect1_innerShadow"/>
<feColorMatrix in="SourceAlpha" type="matrix" values="0 0 0 0 0 0 0 0 0 0 0 0 0 0 0 0 0 0 127 0" result="hardAlpha"/>
<feOffset dx="-1" dy="1"/>
<feGaussianBlur stdDeviation="0.5"/>
<feComposite in2="hardAlpha" operator="arithmetic" k2="-1" k3="1"/>
<feColorMatrix type="matrix" values="0 0 0 0 1 0 0 0 0 1 0 0 0 0 1 0 0 0 0.5 0"/>
<feBlend mode="normal" in2="effect1_innerShadow" result="effect2_innerShadow"/>
</filter>
<filter id="filter1_ii" x="-1" y="24.4084" width="107.903" height="282.412" filterUnits="userSpaceOnUse" color-interpolation-filters="sRGB">
<feFlood flood-opacity="0" result="BackgroundImageFix"/>
<feBlend mode="normal" in="SourceGraphic" in2="BackgroundImageFix" result="shape"/>
<feColorMatrix in="SourceAlpha" type="matrix" values="0 0 0 0 0 0 0 0 0 0 0 0 0 0 0 0 0 0 127 0" result="hardAlpha"/>
<feOffset/>
<feGaussianBlur stdDeviation="10"/>
<feComposite in2="hardAlpha" operator="arithmetic" k2="-1" k3="1"/>
<feColorMatrix type="matrix" values="0 0 0 0 0.5125 0 0 0 0 0.5125 0 0 0 0 0.5125 0 0 0 0.6 0"/>
<feBlend mode="normal" in2="shape" result="effect1_innerShadow"/>
<feColorMatrix in="SourceAlpha" type="matrix" values="0 0 0 0 0 0 0 0 0 0 0 0 0 0 0 0 0 0 127 0" result="hardAlpha"/>
<feOffset dx="-1" dy="1"/>
<feGaussianBlur stdDeviation="0.5"/>
<feComposite in2="hardAlpha" operator="arithmetic" k2="-1" k3="1"/>
<feColorMatrix type="matrix" values="0 0 0 0 1 0 0 0 0 1 0 0 0 0 1 0 0 0 0.5 0"/>
<feBlend mode="normal" in2="effect1_innerShadow" result="effect2_innerShadow"/>
</filter>
<filter id="filter2_ii" x="89.5731" y="171.492" width="237.656" height="157.508" filterUnits="userSpaceOnUse" color-interpolation-filters="sRGB">
<feFlood flood-opacity="0" result="BackgroundImageFix"/>
<feBlend mode="normal" in="SourceGraphic" in2="BackgroundImageFix" result="shape"/>
<feColorMatrix in="SourceAlpha" type="matrix" values="0 0 0 0 0 0 0 0 0 0 0 0 0 0 0 0 0 0 127 0" result="hardAlpha"/>
<feOffset/>
<feGaussianBlur stdDeviation="10"/>
<feComposite in2="hardAlpha" operator="arithmetic" k2="-1" k3="1"/>
<feColorMatrix type="matrix" values="0 0 0 0 0.4125 0 0 0 0 0.4125 0 0 0 0 0.4125 0 0 0 0.2 0"/>
<feBlend mode="normal" in2="shape" result="effect1_innerShadow"/>
<feColorMatrix in="SourceAlpha" type="matrix" values="0 0 0 0 0 0 0 0 0 0 0 0 0 0 0 0 0 0 127 0" result="hardAlpha"/>
<feOffset dx="-1" dy="1"/>
<feGaussianBlur stdDeviation="0.5"/>
<feComposite in2="hardAlpha" operator="arithmetic" k2="-1" k3="1"/>
<feColorMatrix type="matrix" values="0 0 0 0 1 0 0 0 0 1 0 0 0 0 1 0 0 0 0.5 0"/>
<feBlend mode="normal" in2="effect1_innerShadow" result="effect2_innerShadow"/>
</filter>
<filter id="filter3_ii" x="85.6608" y="0" width="155.692" height="62.4767" filterUnits="userSpaceOnUse" color-interpolation-filters="sRGB">
<feFlood flood-opacity="0" result="BackgroundImageFix"/>
<feBlend mode="normal" in="SourceGraphic" in2="BackgroundImageFix" result="shape"/>
<feColorMatrix in="SourceAlpha" type="matrix" values="0 0 0 0 0 0 0 0 0 0 0 0 0 0 0 0 0 0 127 0" result="hardAlpha"/>
<feOffset/>
<feGaussianBlur stdDeviation="10"/>
<feComposite in2="hardAlpha" operator="arithmetic" k2="-1" k3="1"/>
<feColorMatrix type="matrix" values="0 0 0 0 1 0 0 0 0 0.69 0 0 0 0 0.225 0 0 0 0.9 0"/>
<feBlend mode="normal" in2="shape" result="effect1_innerShadow"/>
<feColorMatrix in="SourceAlpha" type="matrix" values="0 0 0 0 0 0 0 0 0 0 0 0 0 0 0 0 0 0 127 0" result="hardAlpha"/>
<feOffset dx="-1" dy="1"/>
<feGaussianBlur stdDeviation="0.5"/>
<feComposite in2="hardAlpha" operator="arithmetic" k2="-1" k3="1"/>
<feColorMatrix type="matrix" values="0 0 0 0 1 0 0 0 0 1 0 0 0 0 1 0 0 0 0.5 0"/>
<feBlend mode="normal" in2="effect1_innerShadow" result="effect2_innerShadow"/>
</filter>
<radialGradient id="paint0_radial" cx="0" cy="0" r="1" gradientUnits="userSpaceOnUse" gradientTransform="translate(163.486 164.514) rotate(90) scale(163.486)">
<stop offset="0.8125" stop-color="#FFB800" stop-opacity="0.4"/>
<stop offset="1" stop-color="#FFEF99" stop-opacity="0.2"/>
</radialGradient>
<radialGradient id="paint1_radial" cx="0" cy="0" r="1" gradientUnits="userSpaceOnUse" gradientTransform="translate(163.486 164.514) rotate(90) scale(163.486)">
<stop offset="0.828125" stop-color="#BFBFBF" stop-opacity="0.69"/>
<stop offset="0.921875" stop-color="#E4E4E4" stop-opacity="0.2"/>
</radialGradient>
<radialGradient id="paint2_radial" cx="0" cy="0" r="1" gradientUnits="userSpaceOnUse" gradientTransform="translate(163.486 164.514) rotate(90) scale(163.486)">
<stop offset="0.828125" stop-color="#A6A6A6" stop-opacity="0.69"/>
<stop offset="0.921875" stop-color="#CBCBCB" stop-opacity="0.2"/>
</radialGradient>
<radialGradient id="paint3_radial" cx="0" cy="0" r="1" gradientUnits="userSpaceOnUse" gradientTransform="translate(163.486 164.514) rotate(90) scale(163.486)">
<stop offset="0.8125" stop-color="#FFB800" stop-opacity="0.7"/>
<stop offset="1" stop-color="#FFEF99" stop-opacity="0.4"/>
</radialGradient>
</defs>
</svg>

<svg width="328" height="328" viewBox="0 0 328 328" fill="none" xmlns="http://www.w3.org/2000/svg"><g filter="url(#filter0_ii)"><path d="M321.854 170.788c3.311.142 6.121-2.427 6.143-5.741a164.004 164.004 0 00-76.545-139.785c-2.803-1.767-6.482-.782-8.145 2.084L224.635 59.52c-1.663 2.866-.679 6.525 2.097 8.335a114.804 114.804 0 0152.063 95.078c.031 3.314 2.583 6.114 5.893 6.257l37.166 1.598z" fill="url(#paint0_radial)" fill-opacity=".6"/></g><g filter="url(#filter1_ii)"><path d="M84.647 27.372c-1.664-2.865-5.343-3.848-8.146-2.08a164.001 164.001 0 003.772 279.725c2.85 1.692 6.5.61 8.087-2.299l17.809-32.661c1.586-2.909.504-6.54-2.318-8.276a114.804 114.804 0 01-54.64-96.233 114.797 114.797 0 0152.025-97.672c2.775-1.811 3.758-5.47 2.094-8.336L84.647 27.373z" fill="url(#paint1_radial)" fill-opacity=".5"/></g><g filter="url(#filter2_ii)"><path d="M91.248 304.254c-1.526 2.941-.383 6.573 2.613 7.991A164.001 164.001 0 00327.2 180.168c.327-3.298-2.199-6.148-5.506-6.354l-37.128-2.31c-3.308-.206-6.139 2.311-6.518 5.603a114.793 114.793 0 01-57.5 86.799 114.79 114.79 0 01-104.013 4.622c-3.018-1.37-6.633-.238-8.159 2.704l-17.13 33.022z" fill="url(#paint2_radial)" fill-opacity=".25"/></g><g filter="url(#filter3_ii)"><path d="M240.6 25.81c1.606-2.898.564-6.56-2.391-8.06a164 164 0 00-148.404-.007c-2.955 1.5-3.998 5.162-2.392 8.06l18.032 32.537c1.606 2.899 5.252 3.931 8.23 2.478a114.801 114.801 0 01100.66.005c2.978 1.453 6.623.421 8.23-2.477L240.6 25.81z" fill="url(#paint3_radial)" fill-opacity=".8"/></g><defs><radialGradient id="paint0_radial" cx="0" cy="0" r="1" gradientUnits="userSpaceOnUse" gradientTransform="rotate(90 -.514 164) scale(163.486)"><stop offset=".813" stop-color="#FFB800" stop-opacity=".4"/><stop offset="1" stop-color="#FFEF99" stop-opacity=".2"/></radialGradient><radialGradient id="paint1_radial" cx="0" cy="0" r="1" gradientUnits="userSpaceOnUse" gradientTransform="rotate(90 -.514 164) scale(163.486)"><stop offset=".828" stop-color="#BFBFBF" stop-opacity=".69"/><stop offset=".922" stop-color="#E4E4E4" stop-opacity=".2"/></radialGradient><radialGradient id="paint2_radial" cx="0" cy="0" r="1" gradientUnits="userSpaceOnUse" gradientTransform="rotate(90 -.514 164) scale(163.486)"><stop offset=".828" stop-color="#A6A6A6" stop-opacity=".69"/><stop offset=".922" stop-color="#CBCBCB" stop-opacity=".2"/></radialGradient><radialGradient id="paint3_radial" cx="0" cy="0" r="1" gradientUnits="userSpaceOnUse" gradientTransform="rotate(90 -.514 164) scale(163.486)"><stop offset=".813" stop-color="#FFB800" stop-opacity=".7"/><stop offset="1" stop-color="#FFEF99" stop-opacity=".4"/></radialGradient><filter id="filter0_ii" x="222.822" y="24.38" width="105.178" height="147.413" filterUnits="userSpaceOnUse" color-interpolation-filters="sRGB"><feFlood flood-opacity="0" result="BackgroundImageFix"/><feBlend in="SourceGraphic" in2="BackgroundImageFix" result="shape"/><feColorMatrix in="SourceAlpha" values="0 0 0 0 0 0 0 0 0 0 0 0 0 0 0 0 0 0 127 0" result="hardAlpha"/><feOffset/><feGaussianBlur stdDeviation="10"/><feComposite in2="hardAlpha" operator="arithmetic" k2="-1" k3="1"/><feColorMatrix values="0 0 0 0 1 0 0 0 0 0.69 0 0 0 0 0.225 0 0 0 0.4 0"/><feBlend in2="shape" result="effect1_innerShadow"/><feColorMatrix in="SourceAlpha" values="0 0 0 0 0 0 0 0 0 0 0 0 0 0 0 0 0 0 127 0" result="hardAlpha"/><feOffset dx="-1" dy="1"/><feGaussianBlur stdDeviation=".5"/><feComposite in2="hardAlpha" operator="arithmetic" k2="-1" k3="1"/><feColorMatrix values="0 0 0 0 1 0 0 0 0 1 0 0 0 0 1 0 0 0 0.5 0"/><feBlend in2="effect1_innerShadow" result="effect2_innerShadow"/></filter><filter id="filter1_ii" x="-1" y="24.408" width="107.903" height="282.412" filterUnits="userSpaceOnUse" color-interpolation-filters="sRGB"><feFlood flood-opacity="0" result="BackgroundImageFix"/><feBlend in="SourceGraphic" in2="BackgroundImageFix" result="shape"/><feColorMatrix in="SourceAlpha" values="0 0 0 0 0 0 0 0 0 0 0 0 0 0 0 0 0 0 127 0" result="hardAlpha"/><feOffset/><feGaussianBlur stdDeviation="10"/><feComposite in2="hardAlpha" operator="arithmetic" k2="-1" k3="1"/><feColorMatrix values="0 0 0 0 0.5125 0 0 0 0 0.5125 0 0 0 0 0.5125 0 0 0 0.6 0"/><feBlend in2="shape" result="effect1_innerShadow"/><feColorMatrix in="SourceAlpha" values="0 0 0 0 0 0 0 0 0 0 0 0 0 0 0 0 0 0 127 0" result="hardAlpha"/><feOffset dx="-1" dy="1"/><feGaussianBlur stdDeviation=".5"/><feComposite in2="hardAlpha" operator="arithmetic" k2="-1" k3="1"/><feColorMatrix values="0 0 0 0 1 0 0 0 0 1 0 0 0 0 1 0 0 0 0.5 0"/><feBlend in2="effect1_innerShadow" result="effect2_innerShadow"/></filter><filter id="filter2_ii" x="89.573" y="171.492" width="237.656" height="157.508" filterUnits="userSpaceOnUse" color-interpolation-filters="sRGB"><feFlood flood-opacity="0" result="BackgroundImageFix"/><feBlend in="SourceGraphic" in2="BackgroundImageFix" result="shape"/><feColorMatrix in="SourceAlpha" values="0 0 0 0 0 0 0 0 0 0 0 0 0 0 0 0 0 0 127 0" result="hardAlpha"/><feOffset/><feGaussianBlur stdDeviation="10"/><feComposite in2="hardAlpha" operator="arithmetic" k2="-1" k3="1"/><feColorMatrix values="0 0 0 0 0.4125 0 0 0 0 0.4125 0 0 0 0 0.4125 0 0 0 0.2 0"/><feBlend in2="shape" result="effect1_innerShadow"/><feColorMatrix in="SourceAlpha" values="0 0 0 0 0 0 0 0 0 0 0 0 0 0 0 0 0 0 127 0" result="hardAlpha"/><feOffset dx="-1" dy="1"/><feGaussianBlur stdDeviation=".5"/><feComposite in2="hardAlpha" operator="arithmetic" k2="-1" k3="1"/><feColorMatrix values="0 0 0 0 1 0 0 0 0 1 0 0 0 0 1 0 0 0 0.5 0"/><feBlend in2="effect1_innerShadow" result="effect2_innerShadow"/></filter><filter id="filter3_ii" x="85.661" y="0" width="155.692" height="62.477" filterUnits="userSpaceOnUse" color-interpolation-filters="sRGB"><feFlood flood-opacity="0" result="BackgroundImageFix"/><feBlend in="SourceGraphic" in2="BackgroundImageFix" result="shape"/><feColorMatrix in="SourceAlpha" values="0 0 0 0 0 0 0 0 0 0 0 0 0 0 0 0 0 0 127 0" result="hardAlpha"/><feOffset/><feGaussianBlur stdDeviation="10"/><feComposite in2="hardAlpha" operator="arithmetic" k2="-1" k3="1"/><feColorMatrix values="0 0 0 0 1 0 0 0 0 0.69 0 0 0 0 0.225 0 0 0 0.9 0"/><feBlend in2="shape" result="effect1_innerShadow"/><feColorMatrix in="SourceAlpha" values="0 0 0 0 0 0 0 0 0 0 0 0 0 0 0 0 0 0 127 0" result="hardAlpha"/><feOffset dx="-1" dy="1"/><feGaussianBlur stdDeviation=".5"/><feComposite in2="hardAlpha" operator="arithmetic" k2="-1" k3="1"/><feColorMatrix values="0 0 0 0 1 0 0 0 0 1 0 0 0 0 1 0 0 0 0.5 0"/><feBlend in2="effect1_innerShadow" result="effect2_innerShadow"/></filter></defs></svg>
